humanity-icon-theme/Humanity/mimes/24/application-x-sln.svg

<?xml version="1.0" encoding="UTF-8" standalone="no"?>
<!-- Created with Inkscape (http://www.inkscape.org/) -->

<svg
   xmlns:svg="http://www.w3.org/2000/svg"
   xmlns="http://www.w3.org/2000/svg"
   xmlns:xlink="http://www.w3.org/1999/xlink"
   version="1.0"
   width="24"
   height="24"
   id="svg2755">
  <defs
     id="defs2757">
    <linearGradient
       id="linearGradient5048">
      <stop
         id="stop5050"
         style="stop-color:#000000;stop-opacity:0"
         offset="0" />
      <stop
         id="stop5056"
         style="stop-color:#000000;stop-opacity:1"
         offset="0.5" />
      <stop
         id="stop5052"
         style="stop-color:#000000;stop-opacity:0"
         offset="1" />
    </linearGradient>
    <linearGradient
       x1="302.85715"
       y1="366.64789"
       x2="302.85715"
       y2="609.50507"
       id="linearGradient2673"
       xlink:href="#linearGradient5048"
       gradientUnits="userSpaceOnUse"
       gradientTransform="matrix(0.0352071,0,0,0.00823529,-0.724852,18.980551)" />
    <radialGradient
       cx="605.71429"
       cy="486.64789"
       r="117.14286"
       fx="605.71429"
       fy="486.64789"
       id="radialGradient2670"
       xlink:href="#linearGradient5060"
       gradientUnits="userSpaceOnUse"
       gradientTransform="matrix(-0.01204859,0,0,0.00823529,10.761206,18.980568)" />
    <linearGradient
       id="linearGradient5060">
      <stop
         id="stop5062"
         style="stop-color:#000000;stop-opacity:1"
         offset="0" />
      <stop
         id="stop5064"
         style="stop-color:#000000;stop-opacity:0"
         offset="1" />
    </linearGradient>
    <radialGradient
       cx="605.71429"
       cy="486.64789"
       r="117.14286"
       fx="605.71429"
       fy="486.64789"
       id="radialGradient2667"
       xlink:href="#linearGradient5060"
       gradientUnits="userSpaceOnUse"
       gradientTransform="matrix(0.01204859,0,0,0.00823529,13.238794,18.980568)" />
    <linearGradient
       x1="-55.613251"
       y1="44.818859"
       x2="-51.786404"
       y2="2.9062471"
       id="linearGradient2664"
       xlink:href="#linearGradient2490"
       gradientUnits="userSpaceOnUse"
       gradientTransform="matrix(0.3922135,0,0,0.4473607,29.199293,-1.2386997)" />
    <linearGradient
       id="linearGradient3211">
      <stop
         id="stop3213"
         style="stop-color:#ffffff;stop-opacity:1"
         offset="0" />
      <stop
         id="stop3215"
         style="stop-color:#ffffff;stop-opacity:0"
         offset="1" />
    </linearGradient>
    <linearGradient
       x1="24"
       y1="1.9999999"
       x2="24"
       y2="46.01725"
       id="linearGradient2656"
       xlink:href="#linearGradient3211"
       gradientUnits="userSpaceOnUse"
       gradientTransform="matrix(0.4545444,0,0,0.4651153,1.0909345,0.3372293)" />
    <linearGradient
       id="linearGradient8589">
      <stop
         id="stop8591"
         style="stop-color:#fefefe;stop-opacity:1"
         offset="0" />
      <stop
         id="stop8593"
         style="stop-color:#cbcbcb;stop-opacity:1"
         offset="1" />
    </linearGradient>
    <linearGradient
       x1="32.892288"
       y1="8.0590115"
       x2="36.358372"
       y2="5.4565363"
       id="linearGradient2652"
       xlink:href="#linearGradient8589"
       gradientUnits="userSpaceOnUse"
       gradientTransform="matrix(0.4778466,0,0,0.5524833,0.3722548,-0.0761283)" />
    <radialGradient
       cx="6.6146555"
       cy="6.8818245"
       r="8.999999"
       fx="6.6146555"
       fy="6.8818245"
       id="radialGradient3679"
       xlink:href="#linearGradient3993"
       gradientUnits="userSpaceOnUse"
       gradientTransform="matrix(0.00875064,1.8048702,-2.3300816,0.01129706,23.285599,-9.4486721)" />
    <linearGradient
       id="linearGradient3993">
      <stop
         id="stop3995"
         style="stop-color:#a3c0d0;stop-opacity:1"
         offset="0" />
      <stop
         id="stop4001"
         style="stop-color:#427da1;stop-opacity:1"
         offset="1" />
    </linearGradient>
    <linearGradient
       id="linearGradient2490">
      <stop
         id="stop2492"
         style="stop-color:#2e4a5a;stop-opacity:1"
         offset="0" />
      <stop
         id="stop2494"
         style="stop-color:#6e8796;stop-opacity:1"
         offset="1" />
    </linearGradient>
  </defs>
  <g
     id="layer1">
    <rect
       width="17"
       height="1.9999981"
       x="3.5000005"
       y="21.999998"
       id="rect2879"
       style="opacity:0.15;fill:url(#linearGradient2673);fill-opacity:1;fill-rule:nonzero;stroke:none;stroke-width:1;marker:none;visibility:visible;display:inline;overflow:visible" />
    <path
       d="m 3.5,22.000086 c 0,0 0,1.999889 0,1.999889 C 2.8795275,24.00374 2,23.551901 2,22.999901 2,22.447902 2.6924,22.000086 3.5,22.000086 z"
       id="path2881"
       style="opacity:0.15;fill:url(#radialGradient2670);fill-opacity:1;fill-rule:nonzero;stroke:none;stroke-width:1;marker:none;visibility:visible;display:inline;overflow:visible" />
    <path
       d="m 20.5,22.000086 c 0,0 0,1.999889 0,1.999889 0.620472,0.0038 1.5,-0.448074 1.5,-1.000074 0,-0.551999 -0.692401,-0.999815 -1.5,-0.999815 z"
       id="path2883"
       style="opacity:0.15;fill:url(#radialGradient2667);fill-opacity:1;fill-rule:nonzero;stroke:none;stroke-width:1;marker:none;visibility:visible;display:inline;overflow:visible" />
    <path
       d="m 3.4999617,0.49996097 c 3.8955799,0 7.6044553,0 11.5000383,0 C 15.683368,0.73725787 19.541325,3.628131 20.5,5.5 c 0,5.729157 3.9e-5,11.270881 3.9e-5,17.000039 -5.666693,0 -11.3333845,0 -17.0000773,0 0,-7.33336 0,-14.6667201 0,-22.00007803 z"
       id="path4160"
       style="fill:url(#radialGradient3679);fill-opacity:1;stroke:url(#linearGradient2664);stroke-width:0.99992162;stroke-linecap:butt;stroke-linejoin:round;stroke-miterlimit:4;stroke-opacity:1;stroke-dasharray:none;stroke-dashoffset:0;display:inline" />
    <path
       d="M 8.8235282,4.6357614 C 7.0295216,4.6360374 4.8655133,6.426059 4,9.3841059 4,11.695365 4,14.006623 4,16.31788 c 0.3987271,2.117503 1.0372141,3.74936 1.573529,5.503312 L 8.0441167,20.430463 C 7.4768227,18.860496 6.7475476,17.293654 6.4852935,16.516557 5.7510914,14.340675 5.7827058,13.367044 5.844,11.70861 5.9032706,10.105219 5.9989972,9.1174479 6.7205876,8.1721849 7.4421922,7.2270112 8.4403615,6.7572661 9.632352,6.9801323 c 2.524459,0.472498 3.336812,3.0537667 3.397058,4.3112587 0.04959,1.034263 -0.501699,3.58141 -2.441176,3.456954 -1.3445275,-0.08643 -2.1002818,-1.093327 -2.1911759,-2.801325 -0.066961,-1.258808 0.8346348,-2.5294221 2.2941179,-1.887417 0.234915,0.103273 0.2508,-0.4658801 -0.01471,-0.7549671 -0.6835584,-0.74421 -3.3915055,-0.459713 -3.3823525,2.4635761 0.00849,2.709018 1.6124702,4.517658 3.1617645,4.529801 3.244705,0.0258 3.881881,-3.434594 3.764704,-5.821192 C 14.090755,7.8322499 11.622026,4.6353227 8.8235282,4.6357614 z"
       id="path3605"
       style="fill:#4a6574;fill-opacity:1;fill-rule:evenodd;stroke:none" />
    <path
       d="M 8.8235291,3.9999999 C 7.0275409,4.0002764 4.8648798,5.8045939 4,8.7682119 4,11.072848 4,13.377483 4,15.682119 4.4016805,17.798895 5.0372112,19.431478 5.573529,21.18543 L 8.0441167,19.794702 C 7.4768227,18.224733 6.7328417,16.657893 6.4705878,15.880794 5.7363855,13.704914 5.8677012,12.731289 5.929,11.072848 5.9882706,9.4694569 5.9989972,8.4816799 6.7205876,7.5364237 7.4421922,6.5912497 8.425655,6.1215109 9.6176456,6.3443707 c 2.5244604,0.472498 3.3368034,3.0537732 3.3970584,4.3112583 0.04959,1.034264 -0.486984,3.581417 -2.42647,3.456954 -1.3445269,-0.08643 -2.1002769,-1.113193 -2.1911759,-2.821192 -0.06696,-1.258808 0.8346257,-2.5095491 2.2941179,-1.8675501 0.234916,0.103273 0.250813,-0.465886 -0.01471,-0.754967 -0.6835556,-0.7442097 -3.3915083,-0.459706 -3.3823507,2.4635771 0.00849,2.709018 1.6124795,4.517658 3.1617637,4.529801 3.244706,0.0258 3.86717,-3.434588 3.749999,-5.8211931 C 14.076051,7.1964883 11.622041,3.9995612 8.8235291,3.9999999 z"
       id="path3607"
       style="fill:#eeeeec;fill-opacity:1;fill-rule:evenodd;stroke:none" />
    <path
       d="M 18.426468,4.8145694 15.95588,6.2052979 c 0.56728,1.5701467 1.31128,3.136549 1.573528,3.9139081 0.734203,2.175887 1.002476,3.149416 0.941177,4.807946 -0.05927,1.603124 -0.469571,2.57121 -1.191177,3.516557 -0.721594,0.945173 -1.705072,1.434876 -2.897057,1.21192 -2.524475,-0.472142 -3.336805,-3.053779 -3.397059,-4.311258 -0.04958,-1.034085 0.486989,-3.581417 2.426471,-3.456954 1.344527,0.08643 2.100281,1.093332 2.191175,2.801325 0.06696,1.258725 -0.83463,2.529498 -2.294116,1.887417 -0.234932,-0.103184 -0.25081,0.465886 0.01471,0.754966 0.683558,0.744293 3.391505,0.459618 3.382353,-2.463576 C 16.69744,12.15862 15.093406,10.33003 13.54412,10.317881 10.299406,10.291911 9.6769549,13.772076 9.7941217,16.15894 9.9239458,18.803245 12.377955,22.00071 15.176472,22 16.970471,21.999866 19.133208,20.189564 20,17.231788 20,14.914244 20,12.624814 20,10.317881 19.59832,8.2010919 18.962795,6.56864 18.426472,4.8145694 z"
       id="path3609"
       style="opacity:0.77380952;fill:#466170;fill-opacity:1;fill-rule:evenodd;stroke:none" />
    <path
       d="m 18.352936,3.9999999 -2.470585,1.3907284 c 0.56728,1.5701467 1.311279,3.1365486 1.573529,3.9139076 0.734202,2.1758881 0.702418,3.1494161 0.64112,4.8079471 -0.05927,1.603123 -0.169516,2.57121 -0.89112,3.516556 -0.721596,0.945174 -1.705073,1.434876 -2.897059,1.21192 -2.524475,-0.472141 -3.336804,-3.053778 -3.397057,-4.311258 -0.04958,-1.034085 0.486987,-3.581417 2.426468,-3.456953 1.344528,0.08643 2.100283,1.093332 2.191177,2.801324 0.06696,1.258725 -0.834631,2.529498 -2.294117,1.887418 -0.234932,-0.103185 -0.250809,0.465886 0.01471,0.754967 0.683557,0.744292 3.40621,0.459617 3.397058,-2.463577 -0.0085,-2.708929 -1.627186,-4.5375201 -3.17647,-4.5496691 -3.244714,-0.02597 -3.8671669,3.4541941 -3.7499995,5.8410601 0.1298257,2.644304 2.5838345,5.841771 5.3823515,5.841059 1.846089,-1.37e-4 4.084022,-1.913975 4.897054,-5.02649 0,-2.111706 0,-4.198355 0,-6.2980131 -0.394005,-2.2923597 -1.081318,-4.0106479 -1.64706,-5.860927 z"
       id="path3611"
       style="fill:#a9c5d3;fill-opacity:1;fill-rule:evenodd;stroke:none" />
    <path
       d="m 19.500001,5.6770357 c 0,5.2083053 0,10.6146573 0,15.8229643 -5,0 -9.9999998,0 -15.000001,0 0,-6.66667 0,-13.3333343 0,-20.0000001 3.4372614,0 6.956499,0 10.393761,0"
       id="path2435"
       style="opacity:0.41999996;fill:none;stroke:url(#linearGradient2656);stroke-width:0.99999988;stroke-linecap:butt;stroke-linejoin:miter;stroke-miterlimit:4;stroke-opacity:1;stroke-dasharray:none;stroke-dashoffset:0;display:inline" />
    <path
       d="m 14.075474,1 c 1.156303,0.3287671 0.339059,4.6143789 0.339059,4.6143789 0,0 4.515388,-0.4277362 5.60771,1.1949961 C 21.511396,9.0216317 19.954018,6.1742029 19.848796,5.9876778 19.092868,4.6476323 15.982456,1.4405918 14.803387,1.0464703 14.715155,1.0169778 14.519511,1 14.075474,1 z"
       id="path3370"
       style="opacity:0.3;fill:#000000;fill-opacity:1;fill-rule:evenodd;stroke:none;display:inline" />
    <path
       d="m 14,0 c 1.526166,0 1,5 1,5 0,0 6.074781,-0.45326 6.074781,2 0,-0.5977419 0.04504,-1.8225012 -0.07478,-2 -0.839107,-1.2430058 -4.670755,-4.68212189 -6,-5 -0.09048,-0.02163788 -0.555963,0 -1,0 z"
       id="path4474"
       style="fill:url(#linearGradient2652);fill-opacity:1;fill-rule:evenodd;stroke:none;display:inline" />
  </g>
</svg>

<?xml version="1.0" encoding="UTF-8" standalone="no"?>
<!-- Created with Inkscape (http://www.inkscape.org/) -->
<svg id="svg2755" xmlns="http://www.w3.org/2000/svg" height="24" width="24" version="1.0" xmlns:xlink="http://www.w3.org/1999/xlink">
 <defs id="defs2757">
  <linearGradient id="linearGradient2673" y2="609.51" gradientUnits="userSpaceOnUse" x2="302.86" gradientTransform="matrix(.035207 0 0 .0082353 -.72485 18.981)" y1="366.65" x1="302.86">
   <stop id="stop5050" style="stop-opacity:0" offset="0"/>
   <stop id="stop5056" offset=".5"/>
   <stop id="stop5052" style="stop-opacity:0" offset="1"/>
  </linearGradient>
  <radialGradient id="radialGradient2670" xlink:href="#linearGradient5060" gradientUnits="userSpaceOnUse" cy="486.65" cx="605.71" gradientTransform="matrix(-.012049 0 0 .0082353 10.761 18.981)" r="117.14"/>
  <linearGradient id="linearGradient5060">
   <stop id="stop5062" offset="0"/>
   <stop id="stop5064" style="stop-opacity:0" offset="1"/>
  </linearGradient>
  <radialGradient id="radialGradient2667" xlink:href="#linearGradient5060" gradientUnits="userSpaceOnUse" cy="486.65" cx="605.71" gradientTransform="matrix(.012049 0 0 .0082353 13.239 18.981)" r="117.14"/>
  <linearGradient id="linearGradient2664" y2="2.9062" gradientUnits="userSpaceOnUse" x2="-51.786" gradientTransform="matrix(.39221 0 0 .44736 29.199 -1.2387)" y1="44.819" x1="-55.613">
   <stop id="stop2492" style="stop-color:#2e4a5a" offset="0"/>
   <stop id="stop2494" style="stop-color:#6e8796" offset="1"/>
  </linearGradient>
  <linearGradient id="linearGradient2656" y2="46.017" gradientUnits="userSpaceOnUse" x2="24" gradientTransform="matrix(.45454 0 0 .46512 1.0909 .33723)" y1="2" x1="24">
   <stop id="stop3213" style="stop-color:#fff" offset="0"/>
   <stop id="stop3215" style="stop-color:#fff;stop-opacity:0" offset="1"/>
  </linearGradient>
  <linearGradient id="linearGradient2652" y2="5.4565" gradientUnits="userSpaceOnUse" x2="36.358" gradientTransform="matrix(.47785 0 0 .55248 .37225 -.076128)" y1="8.059" x1="32.892">
   <stop id="stop8591" style="stop-color:#fefefe" offset="0"/>
   <stop id="stop8593" style="stop-color:#cbcbcb" offset="1"/>
  </linearGradient>
  <radialGradient id="radialGradient3679" gradientUnits="userSpaceOnUse" cy="6.8818" cx="6.6147" gradientTransform="matrix(.0087506 1.8049 -2.3301 .011297 23.286 -9.4487)" r="9">
   <stop id="stop3995" style="stop-color:#a3c0d0" offset="0"/>
   <stop id="stop4001" style="stop-color:#427da1" offset="1"/>
  </radialGradient>
 </defs>
 <g id="layer1">
  <rect id="rect2879" style="opacity:.15;fill:url(#linearGradient2673)" height="2" width="17" y="22" x="3.5"/>
  <path id="path2881" style="opacity:.15;fill:url(#radialGradient2670)" d="m3.5 22v1.9999c-0.6205 0.004-1.5-0.448-1.5-1s0.6924-1 1.5-1z"/>
  <path id="path2883" style="opacity:.15;fill:url(#radialGradient2667)" d="m20.5 22v1.9999c0.62047 0.0038 1.5-0.44807 1.5-1.0001 0-0.552-0.6924-0.99982-1.5-0.99982z"/>
  <path id="path4160" style="stroke-linejoin:round;stroke:url(#linearGradient2664);stroke-width:.99992;fill:url(#radialGradient3679)" d="m3.5 0.49996h11.5c0.683 0.2373 4.541 3.1281 5.5 5 0 5.7292 0.000039 11.271 0.000039 17h-17v-22z"/>
  <path id="path3605" style="fill:#4a6574;fill-rule:evenodd" d="m8.8235 4.6358c-1.794 0.0002-3.958 1.7903-4.8235 4.7483v6.9339c0.39873 2.1175 1.0372 3.7494 1.5735 5.5033l2.4706-1.391c-0.5673-1.57-1.2966-3.136-1.5588-3.913-0.7342-2.176-0.7026-3.15-0.6413-4.808 0.0593-1.604 0.155-2.5916 0.8766-3.5368s1.7198-1.4149 2.9118-1.1921c2.5245 0.4725 3.3368 3.0538 3.3971 4.3113 0.04959 1.0343-0.5017 3.5814-2.4412 3.457-1.3445-0.08643-2.1003-1.0933-2.1912-2.8013-0.066961-1.2588 0.83463-2.5294 2.2941-1.8874 0.23492 0.10327 0.2508-0.46588-0.01471-0.75497-0.68356-0.74421-3.3915-0.45971-3.3824 2.4636 0.00849 2.709 1.6125 4.5177 3.1618 4.5298 3.2447 0.0258 3.8819-3.4346 3.7647-5.8212-0.13-2.6448-2.599-5.8417-5.3975-5.8412z"/>
  <path id="path3607" style="fill:#eeeeec;fill-rule:evenodd" d="m8.8235 4c-1.796 0.0003-3.9586 1.8046-4.8235 4.7682v6.9138c0.4017 2.117 1.0372 3.749 1.5735 5.503l2.4706-1.39c-0.5673-1.57-1.3113-3.137-1.5735-3.914-0.7342-2.176-0.6029-3.15-0.5416-4.808 0.0593-1.6035 0.07-2.5913 0.7916-3.5366 0.7216-0.9452 1.7051-1.4149 2.897-1.192 2.5245 0.4725 3.3368 3.0538 3.3971 4.3113 0.04959 1.0343-0.48698 3.5814-2.4265 3.457-1.3445-0.08643-2.1003-1.1132-2.1912-2.8212-0.06696-1.2588 0.83463-2.5095 2.2941-1.8676 0.23492 0.10327 0.25081-0.46589-0.01471-0.75497-0.68356-0.74421-3.3915-0.45971-3.3824 2.4636 0.00849 2.709 1.6125 4.5177 3.1618 4.5298 3.2447 0.0258 3.8672-3.4346 3.75-5.8212-0.13-2.6446-2.584-5.8415-5.3825-5.8411z"/>
  <path id="path3609" style="opacity:.77381;fill:#466170;fill-rule:evenodd" d="m18.426 4.8146-2.47 1.3907c0.56728 1.5701 1.3113 3.1365 1.5735 3.9139 0.7342 2.1759 1.0025 3.1494 0.94118 4.8079-0.05927 1.6031-0.46957 2.5712-1.1912 3.5166-0.72159 0.94517-1.7051 1.4349-2.8971 1.2119-2.5245-0.47214-3.3368-3.0538-3.3971-4.3113-0.04958-1.0341 0.48699-3.5814 2.4265-3.457 1.3445 0.08643 2.1003 1.0933 2.1912 2.8013 0.06696 1.2587-0.83463 2.5295-2.2941 1.8874-0.23493-0.10318-0.25081 0.46589 0.01471 0.75497 0.68356 0.74429 3.3915 0.45962 3.3824-2.4636-0.009-2.708-1.613-4.537-3.162-4.549-3.245-0.026-3.867 3.454-3.7499 5.841 0.1298 2.644 2.5839 5.842 5.3819 5.841 1.794 0 3.957-1.81 4.824-4.768v-6.914c-0.402-2.1169-1.037-3.7494-1.574-5.5034z"/>
  <path id="path3611" style="fill:#a9c5d3;fill-rule:evenodd" d="m18.353 4-2.4706 1.3907c0.56728 1.5701 1.3113 3.1365 1.5735 3.9139 0.7342 2.1759 0.70242 3.1494 0.64112 4.8079-0.05927 1.6031-0.16952 2.5712-0.89112 3.5166-0.7216 0.94517-1.7051 1.4349-2.8971 1.2119-2.5245-0.47214-3.3368-3.0538-3.3971-4.3113-0.04958-1.0341 0.48699-3.5814 2.4265-3.457 1.3445 0.08643 2.1003 1.0933 2.1912 2.8013 0.06696 1.2587-0.83463 2.5295-2.2941 1.8874-0.23493-0.10318-0.25081 0.46589 0.01471 0.75497 0.68356 0.74429 3.4062 0.45962 3.3971-2.4636-0.0085-2.7089-1.6272-4.5375-3.1765-4.5497-3.2447-0.02597-3.8672 3.4542-3.75 5.8411 0.12983 2.6443 2.5838 5.8418 5.3824 5.8411 1.8461-0.000137 4.084-1.914 4.8971-5.0265v-6.298c-0.394-2.2924-1.0813-4.0106-1.6471-5.8609z"/>
  <path id="path2435" style="opacity:0.42;stroke:url(#linearGradient2656);fill:none" d="m19.5 5.677v15.823h-15v-20h10.394"/>
  <path id="path3370" style="opacity:.3;fill-rule:evenodd" d="m14.075 1c1.1563 0.32877 0.33906 4.6144 0.33906 4.6144s4.5154-0.42774 5.6077 1.195c1.489 2.2122-0.068-0.6352-0.173-0.8217-0.756-1.3401-3.867-4.5471-5.046-4.9412-0.088-0.0295-0.283-0.0465-0.728-0.0465z"/>
  <path id="path4474" style="fill:url(#linearGradient2652);fill-rule:evenodd" d="m14 0c1.5262 0 1 5 1 5s6.0748-0.45326 6.0748 2c0-0.59774 0.04504-1.8225-0.07478-2-0.83911-1.243-4.6708-4.6821-6-5-0.09048-0.021638-0.55596 0-1 0z"/>
 </g>
</svg>
